X: 1
T: Wedding Shoes
C: William Vickers
R: jig
Z: 2006 John Chambers <jc:trillian.mit.edu>
B: Pinewoods Alternates
M: 6/8
L: 1/8
K: G
   D \
| "G"G2g "D7"fed | "C"efg "G"dcB | "Am"ecA "G"dBG | "D7"FGB AFD \
| "G"G2g "D7"fed | "C"efg "G"dcB | "Am"ecA "G"dBG | "D7"AFD "G"G2 :|
|: d \
| "G"gag "D7"fed | "C"e2"(D)"f "G"g2{G}A | "G"B2c dBG | "D7"FGB AFD \
| "G"G2g "D7"fed | "C"efg "G"dcB | "Am"ecA "G"dBG | "D"AFD "G"G2 :|
